X: 19399
T: Jackie Coleman's
R: reel
M: 4/4
K: Dmajor
|:AF F2 EFDE|F2 AF BFAF|E2 BE d3B|ABde fedB|
AF F2 EFDE|F2 AF BFAF|E2 BE d3B|ABde fd d2:|
|:fddc dfag|fd d2 fagf|eA A2 eAfA|eA A2 efge|
fddc dfag|fddc dfaf|g3f gbag|fdec d2 d2:|

